img/sprites/phone.svg

<svg width="28" height="28" viewBox="0 0 28 28" fill="none" xmlns="http://www.w3.org/2000/svg">
<path d="M27.5 14C27.5 21.4558 21.4558 27.5 14 27.5C6.54416 27.5 0.5 21.4558 0.5 14C0.5 6.54416 6.54416 0.5 14 0.5C21.4558 0.5 27.5 6.54416 27.5 14Z" stroke="white"/>
<path d="M13.7483 7.99407C13.7593 7.99407 13.77 7.99401 13.7809 7.99401C15.3719 7.99401 16.8628 8.60914 17.9816 9.72795C19.1097 10.856 19.7267 12.3596 19.7191 13.9617C19.7174 14.3222 20.0083 14.6159 20.3688 14.6177C20.3699 14.6177 20.3709 14.6177 20.372 14.6177C20.7311 14.6177 21.023 14.3274 21.0248 13.9679C21.0341 12.0146 20.2812 10.181 18.9049 8.80464C17.5393 7.43901 15.721 6.68828 13.7811 6.68828C13.7692 6.68828 13.7572 6.68831 13.7452 6.68834C13.3847 6.69007 13.0938 6.98377 13.0955 7.34431C13.0972 7.70381 13.3892 7.99407 13.7483 7.99407Z" fill="white"/>
<path d="M21.7114 19.4668C21.6881 18.8203 21.4188 18.217 20.9531 17.768C20.0414 16.8888 19.2775 16.3813 18.5491 16.1708C17.5454 15.8807 16.6158 16.1446 15.7862 16.9548C15.785 16.956 15.7837 16.9572 15.7825 16.9585L14.8989 17.8354C14.3502 17.5271 13.2834 16.8487 12.1167 15.682L12.0308 15.5961C10.8717 14.4371 10.189 13.3642 9.87834 12.8132L10.7544 11.9305C10.7557 11.9293 10.7569 11.928 10.7581 11.9268C11.5683 11.0972 11.8321 10.1676 11.5421 9.1639C11.3316 8.43554 10.8241 7.67164 9.9449 6.7599C9.4959 6.29425 8.8926 6.02495 8.24618 6.00164C7.59988 5.97837 6.9786 6.2034 6.49715 6.63559L6.47841 6.65244C6.4697 6.66024 6.46121 6.6683 6.45295 6.67656C5.49456 7.63488 4.99219 8.97656 5.00009 10.5565C5.01348 13.2404 6.48856 16.3097 8.9459 18.767C8.94796 18.7691 8.94998 18.7711 8.95204 18.7731C9.414 19.2344 9.9385 19.6909 10.5111 20.13C10.7972 20.3494 11.207 20.2952 11.4265 20.0091C11.6458 19.723 11.5918 19.3132 11.3056 19.0938C10.7756 18.6875 10.2923 18.2669 9.8692 17.8437C9.86718 17.8417 9.86515 17.8397 9.8631 17.8377C7.64715 15.6192 6.31748 12.8954 6.30577 10.5499C6.29969 9.33315 6.66572 8.31754 7.3644 7.61164L7.36939 7.60714C7.84395 7.18122 8.56242 7.20713 9.00505 7.66615C10.6953 9.419 10.5729 10.2465 9.82605 11.0124L8.61585 12.2317C8.42607 12.4229 8.37322 12.7111 8.48283 12.9572C8.51355 13.0262 9.25676 14.6686 11.1078 16.5196L11.1937 16.6054C13.0445 18.4562 14.6868 19.1994 14.7558 19.2301C15.0019 19.3398 15.2901 19.2869 15.4813 19.0971L16.7004 17.8871C17.4664 17.1401 18.2939 17.0176 20.0469 18.7079C20.5059 19.1505 20.5318 19.869 20.1059 20.3435L20.1013 20.3486C19.4012 21.0416 18.3964 21.4073 17.1928 21.4073C17.1829 21.4073 17.173 21.4073 17.163 21.4072C16.201 21.4024 15.087 21.1387 13.9416 20.6446C13.6105 20.5018 13.2263 20.6544 13.0835 20.9855C12.9407 21.3166 13.0933 21.7007 13.4244 21.8435C14.7485 22.4147 16.0041 22.7071 17.1565 22.7129C17.1688 22.713 17.1809 22.713 17.1931 22.713C18.7572 22.713 20.0855 22.211 21.0364 21.2601C21.0447 21.2518 21.0527 21.2433 21.0605 21.2346L21.0775 21.2158C21.5095 20.7344 21.7347 20.1133 21.7114 19.4668Z" fill="white"/>
<path d="M17.0601 10.6531C16.3598 9.95276 15.6877 9.76692 15.3646 9.67757C15.017 9.58144 14.6575 9.78526 14.5614 10.1328C14.4653 10.4803 14.6691 10.84 15.0166 10.9361C15.2808 11.0091 15.6799 11.1195 16.1368 11.5764C16.5766 12.0162 16.6934 12.4132 16.7708 12.676L16.7802 12.7079C16.8642 12.9918 17.1242 13.1757 17.4059 13.1757C17.4673 13.1757 17.5297 13.1669 17.5916 13.1486C17.9373 13.0463 18.1346 12.683 18.0322 12.3373L18.0234 12.3073C17.9227 11.9652 17.7353 11.3282 17.0601 10.6531Z" fill="white"/>
</svg>

<svg width="28" height="28" viewBox="0 0 28 28" fill="none" xmlns="http://www.w3.org/2000/svg"><path d="M27.5 14c0 7.456-6.044 13.5-13.5 13.5S.5 21.456.5 14 6.544.5 14 .5 27.5 6.544 27.5 14z" stroke="#fff"/><path d="M13.748 7.994h.033c1.59 0 3.082.615 4.2 1.734a5.904 5.904 0 011.738 4.234c-.002.36.29.654.65.656h.003c.36 0 .651-.29.653-.65a7.2 7.2 0 00-2.12-5.163 7.193 7.193 0 00-5.124-2.117h-.036a.653.653 0 00.003 1.306zm7.963 11.473a2.472 2.472 0 00-.758-1.699c-.912-.88-1.675-1.387-2.404-1.597-1.004-.29-1.933-.026-2.763.784l-.003.004-.884.876c-.549-.308-1.616-.986-2.782-2.153l-.086-.086c-1.16-1.159-1.842-2.232-2.153-2.783l.876-.883c.002 0 .003-.002.004-.003.81-.83 1.074-1.76.784-2.763-.21-.728-.718-1.492-1.597-2.404a2.472 2.472 0 00-1.699-.758 2.473 2.473 0 00-1.749.634l-.019.016a.637.637 0 00-.025.025c-.958.958-1.46 2.3-1.453 3.88.013 2.683 1.489 5.753 3.946 8.21a14.58 14.58 0 01.917-.93c-2.216-2.218-3.546-4.942-3.557-7.287-.006-1.217.36-2.232 1.058-2.938l.005-.005a1.174 1.174 0 011.636.06c1.69 1.752 1.568 2.58.821 3.345l-1.21 1.22a.653.653 0 00-.133.725c.03.07.774 1.712 2.625 3.563l.086.085c1.85 1.851 3.493 2.594 3.562 2.625.246.11.534.057.725-.133l1.22-1.21c.765-.747 1.593-.87 3.346.82.459.444.485 1.162.059 1.636l-.005.006c-.7.693-1.705 1.058-2.908 1.058h-.03c-.962-.005-2.076-.268-3.221-.762a.653.653 0 00-.518 1.198c1.325.572 2.58.864 3.733.87h.036c1.564 0 2.892-.502 3.843-1.453a.643.643 0 00.024-.025l.018-.02a2.473 2.473 0 00.633-1.748z" fill="#fff"/><path d="M17.06 10.653c-.7-.7-1.372-.886-1.695-.975a.653.653 0 10-.348 1.258 2.29 2.29 0 011.12.64c.44.44.556.837.634 1.1l.01.032a.653.653 0 101.251-.37l-.009-.03c-.1-.343-.288-.98-.963-1.655z" fill="#fff"/></svg>
